X: 343
T: Xia liulin
L: 1/8
M: 2/4
K: F
c c/ c/ G c [I:setbarnb 1]| 
F DC2 | 
c c c d | 
c/ G A/G2 | 
G A c d/ c/ | 
c A/ G/F2 | 
c G/ F/ E D | 
C4 |]

@@@ Tune index: 9217
